Numix/16/status/indicator-keyboard-Sw-2.svg

<?xml version="1.0" encoding="UTF-8" standalone="no"?>
<svg
   xmlns:dc="http://purl.org/dc/elements/1.1/"
   xmlns:cc="http://creativecommons.org/ns#"
   xmlns:rdf="http://www.w3.org/1999/02/22-rdf-syntax-ns#"
   xmlns:svg="http://www.w3.org/2000/svg"
   xmlns="http://www.w3.org/2000/svg"
   xmlns:sodipodi="http://sodipodi.sourceforge.net/DTD/sodipodi-0.dtd"
   xmlns:inkscape="http://www.inkscape.org/namespaces/inkscape"
   viewBox="0 0 16 16"
   id="svg2"
   version="1.1"
   inkscape:version="0.91 r13725"
   sodipodi:docname="indicator-keyboard-Sw-2.svg">
  <metadata
     id="metadata14">
    <rdf:RDF>
      <cc:Work
         rdf:about="">
        <dc:format>image/svg+xml</dc:format>
        <dc:type
           rdf:resource="http://purl.org/dc/dcmitype/StillImage" />
      </cc:Work>
    </rdf:RDF>
  </metadata>
  <defs
     id="defs12" />
  <sodipodi:namedview
     pagecolor="#ffffff"
     bordercolor="#666666"
     borderopacity="1"
     objecttolerance="10"
     gridtolerance="10"
     guidetolerance="10"
     inkscape:pageopacity="0"
     inkscape:pageshadow="2"
     inkscape:window-width="640"
     inkscape:window-height="480"
     id="namedview10"
     showgrid="false"
     inkscape:zoom="14.75"
     inkscape:cx="8"
     inkscape:cy="8"
     inkscape:window-x="65"
     inkscape:window-y="24"
     inkscape:window-maximized="0"
     inkscape:current-layer="svg2" />
  <path
     style="fill:#ececec;fill-opacity:1"
     d="M 1.5996094 0 C 0.71320937 2.9605947e-16 0 0.71320937 0 1.5996094 L 0 14.400391 C 2.9605947e-16 15.286791 0.71320937 16 1.5996094 16 L 14.400391 16 C 15.286791 16 16 15.286791 16 14.400391 L 16 1.5996094 C 16 0.71320937 15.286791 0 14.400391 0 L 1.5996094 0 z M 3.109375 4.7246094 C 3.277375 4.7246094 3.4415156 4.7357656 3.6035156 4.7597656 C 3.7655156 4.7837656 3.9147344 4.817375 4.0527344 4.859375 C 4.1967344 4.895375 4.3274063 4.936375 4.4414062 4.984375 C 4.5614062 5.032375 4.6602813 5.0846719 4.7382812 5.1386719 L 4.5214844 5.6503906 C 4.3474844 5.5303906 4.1348125 5.4352813 3.8828125 5.3632812 C 3.6368125 5.2912813 3.3700312 5.2558594 3.0820312 5.2558594 C 2.8840312 5.2558594 2.7012031 5.2763594 2.5332031 5.3183594 C 2.3712031 5.3543594 2.229375 5.4178125 2.109375 5.5078125 C 1.989375 5.5918125 1.8942656 5.6980781 1.8222656 5.8300781 C 1.7562656 5.9620781 1.7226562 6.1225938 1.7226562 6.3085938 C 1.7226562 6.5005938 1.7580781 6.6629219 1.8300781 6.7949219 C 1.9020781 6.9269219 2.0009531 7.0407187 2.1269531 7.1367188 C 2.2589531 7.2327187 2.4119375 7.3184844 2.5859375 7.3964844 C 2.7599375 7.4744844 2.9502969 7.556625 3.1542969 7.640625 C 3.4002969 7.742625 3.6297031 7.8433125 3.8457031 7.9453125 C 4.0677031 8.0473125 4.259875 8.1686406 4.421875 8.3066406 C 4.583875 8.4446406 4.7145469 8.6125469 4.8105469 8.8105469 C 4.9065469 9.0085469 4.953125 9.2510625 4.953125 9.5390625 C 4.953125 10.103063 4.755375 10.526594 4.359375 10.808594 C 3.969375 11.090594 3.4395781 11.230469 2.7675781 11.230469 C 2.5275781 11.230469 2.307375 11.215547 2.109375 11.185547 C 1.911375 11.155547 1.734125 11.120125 1.578125 11.078125 C 1.422125 11.030125 1.2915938 10.981594 1.1835938 10.933594 C 1.0755938 10.885594 0.98968749 10.844594 0.9296875 10.808594 L 1.1289062 10.277344 C 1.1889063 10.313344 1.2690937 10.354344 1.3710938 10.402344 C 1.4730937 10.450344 1.5944219 10.498875 1.7324219 10.546875 C 1.8704219 10.588875 2.0252187 10.624297 2.1992188 10.654297 C 2.3732187 10.684297 2.5653906 10.699219 2.7753906 10.699219 C 3.2613906 10.699219 3.6401562 10.613453 3.9101562 10.439453 C 4.1801562 10.259453 4.3144531 9.9702189 4.3144531 9.5742188 C 4.3144531 9.3462187 4.2696875 9.1578125 4.1796875 9.0078125 C 4.0956875 8.8518125 3.9818906 8.7230938 3.8378906 8.6210938 C 3.6938906 8.5130937 3.5277969 8.4235625 3.3417969 8.3515625 C 3.1557969 8.2735625 2.9618125 8.1914219 2.7578125 8.1074219 C 2.4998125 8.0054219 2.2684531 7.9009687 2.0644531 7.7929688 C 1.8604531 7.6849688 1.6869687 7.5655937 1.5429688 7.4335938 C 1.3989687 7.2955938 1.2869844 7.1388437 1.2089844 6.9648438 C 1.1369844 6.7908438 1.1015625 6.5875156 1.1015625 6.3535156 C 1.1015625 5.8195156 1.2788125 5.4146719 1.6328125 5.1386719 C 1.9868125 4.8626719 2.479375 4.7246094 3.109375 4.7246094 z M 5.4902344 6.4433594 L 6.1113281 6.4433594 C 6.1773281 6.7613594 6.2575156 7.1065156 6.3535156 7.4785156 C 6.4555156 7.8445156 6.5637344 8.2101719 6.6777344 8.5761719 C 6.7917344 8.9361719 6.9055312 9.2775625 7.0195312 9.6015625 C 7.1395312 9.9255627 7.2515156 10.201688 7.3535156 10.429688 C 7.4675156 10.129687 7.5813125 9.8087969 7.6953125 9.4667969 C 7.8153125 9.1247969 7.9253438 8.7796406 8.0273438 8.4316406 C 8.1293438 8.0836406 8.2264063 7.74225 8.3164062 7.40625 C 8.4064063 7.06425 8.4847812 6.7433594 8.5507812 6.4433594 L 9.0546875 6.4433594 C 9.1086875 6.7433594 9.1777188 7.06425 9.2617188 7.40625 C 9.3517187 7.74225 9.4468281 8.0874062 9.5488281 8.4414062 C 9.6568281 8.7894063 9.7688125 9.1345625 9.8828125 9.4765625 C 10.002812 9.8185625 10.122188 10.139453 10.242188 10.439453 C 10.344187 10.211453 10.452406 9.9353283 10.566406 9.6113281 C 10.680406 9.2813281 10.794203 8.9361719 10.908203 8.5761719 C 11.022203 8.2101719 11.126656 7.8445156 11.222656 7.4785156 C 11.324656 7.1065156 11.408609 6.7613594 11.474609 6.4433594 L 12.050781 6.4433594 C 11.834781 7.3553594 11.597844 8.1893125 11.339844 8.9453125 C 11.087844 9.7013127 10.807953 10.417703 10.501953 11.095703 L 9.953125 11.095703 C 9.863125 10.885703 9.7680156 10.652531 9.6660156 10.394531 C 9.5700156 10.130531 9.467375 9.8506406 9.359375 9.5566406 C 9.257375 9.2566406 9.1566875 8.9450938 9.0546875 8.6210938 C 8.9586875 8.2910937 8.8653906 7.9552813 8.7753906 7.6132812 C 8.6853906 7.9552813 8.5883281 8.2910937 8.4863281 8.6210938 C 8.3903281 8.9450938 8.2896406 9.2566406 8.1816406 9.5566406 C 8.0796406 9.8506406 7.977 10.130531 7.875 10.394531 C 7.779 10.652531 7.6857031 10.885703 7.5957031 11.095703 L 7.0371094 11.095703 C 6.7311094 10.417703 6.4494062 9.7013127 6.1914062 8.9453125 C 5.9394062 8.1893125 5.7062344 7.3553594 5.4902344 6.4433594 z M 13.742188 8.7539062 C 14.136087 8.7539062 14.431959 8.851875 14.630859 9.046875 C 14.829759 9.237975 14.929687 9.5044563 14.929688 9.8476562 C 14.929688 9.9997563 14.902256 10.14475 14.847656 10.28125 C 14.793056 10.41385 14.7186 10.543169 14.625 10.667969 C 14.5353 10.792769 14.431453 10.912297 14.314453 11.029297 C 14.197453 11.146297 14.077931 11.263859 13.957031 11.380859 C 13.855631 11.478359 13.757656 11.578288 13.660156 11.679688 C 13.566556 11.777187 13.480344 11.877116 13.402344 11.978516 C 13.328244 12.076016 13.267503 12.172031 13.220703 12.269531 C 13.177803 12.363131 13.15625 12.457181 13.15625 12.550781 L 13.15625 12.5625 L 15.070312 12.5625 L 15.070312 12.896484 L 12.734375 12.896484 C 12.734375 12.888684 12.732449 12.874969 12.728516 12.855469 L 12.728516 12.755859 C 12.728516 12.572559 12.761825 12.402094 12.828125 12.246094 C 12.894425 12.086194 12.978678 11.937275 13.080078 11.796875 C 13.185378 11.656475 13.300981 11.525197 13.425781 11.404297 C 13.554481 11.283397 13.677922 11.165834 13.794922 11.052734 C 13.892422 10.959134 13.982559 10.869003 14.068359 10.783203 C 14.158059 10.693503 14.236434 10.603366 14.302734 10.509766 C 14.369034 10.416166 14.421938 10.316237 14.460938 10.210938 C 14.499937 10.105638 14.519531 9.9900344 14.519531 9.8652344 C 14.519531 9.5922344 14.445075 9.39825 14.296875 9.28125 C 14.152575 9.16035 13.970347 9.0996094 13.748047 9.0996094 C 13.623247 9.0996094 13.511562 9.1152844 13.414062 9.1464844 C 13.316563 9.1776844 13.23035 9.2149125 13.15625 9.2578125 C 13.08605 9.2968125 13.025309 9.3379594 12.974609 9.3808594 C 12.923909 9.4237594 12.886681 9.4570688 12.863281 9.4804688 L 12.664062 9.2167969 C 12.687463 9.1894969 12.728609 9.1503094 12.787109 9.0996094 C 12.849509 9.0450094 12.925925 8.9921062 13.015625 8.9414062 C 13.109225 8.8907063 13.216991 8.8476 13.337891 8.8125 C 13.458791 8.7735 13.593988 8.7539063 13.742188 8.7539062 z "
     id="path4" />
</svg>

<svg xmlns="http://www.w3.org/2000/svg" viewBox="0 0 16 16">
 <path d="m 1.6 0 c -0.886 0 -1.6 0.713 -1.6 1.6 l 0 12.801 c 0 0.886 0.713 1.6 1.6 1.6 l 12.801 0 c 0.886 0 1.6 -0.713 1.6 -1.6 l 0 -12.801 c 0 -0.886 -0.713 -1.6 -1.6 -1.6 l -12.801 0 z m 1.51 4.725 c 0.168 0 0.332 0.011 0.494 0.035 c 0.162 0.024 0.311 0.058 0.449 0.1 c 0.144 0.036 0.275 0.077 0.389 0.125 c 0.12 0.048 0.219 0.1 0.297 0.154 l -0.217 0.512 c -0.174 -0.12 -0.387 -0.215 -0.639 -0.287 c -0.246 -0.072 -0.513 -0.107 -0.801 -0.107 c -0.198 0 -0.381 0.02 -0.549 0.063 c -0.162 0.036 -0.304 0.099 -0.424 0.189 c -0.12 0.084 -0.215 0.19 -0.287 0.322 c -0.066 0.132 -0.1 0.293 -0.1 0.479 c 0 0.192 0.035 0.354 0.107 0.486 c 0.072 0.132 0.171 0.246 0.297 0.342 c 0.132 0.096 0.285 0.182 0.459 0.26 c 0.174 0.078 0.364 0.16 0.568 0.244 c 0.246 0.102 0.475 0.203 0.691 0.305 c 0.222 0.102 0.414 0.223 0.576 0.361 c 0.162 0.138 0.293 0.306 0.389 0.504 c 0.096 0.198 0.143 0.441 0.143 0.729 c 0 0.564 -0.198 0.988 -0.594 1.27 c -0.39 0.282 -0.92 0.422 -1.592 0.422 c -0.24 0 -0.46 -0.015 -0.658 -0.045 c -0.198 -0.03 -0.375 -0.065 -0.531 -0.107 c -0.156 -0.048 -0.287 -0.097 -0.395 -0.145 c -0.108 -0.048 -0.194 -0.089 -0.254 -0.125 l 0.199 -0.531 c 0.06 0.036 0.14 0.077 0.242 0.125 c 0.102 0.048 0.223 0.097 0.361 0.145 c 0.138 0.042 0.293 0.077 0.467 0.107 c 0.174 0.03 0.366 0.045 0.576 0.045 c 0.486 0 0.865 -0.086 1.135 -0.26 c 0.27 -0.18 0.404 -0.469 0.404 -0.865 c 0 -0.228 -0.045 -0.416 -0.135 -0.566 c -0.084 -0.156 -0.198 -0.285 -0.342 -0.387 c -0.144 -0.108 -0.31 -0.198 -0.496 -0.27 c -0.186 -0.078 -0.38 -0.16 -0.584 -0.244 c -0.258 -0.102 -0.489 -0.206 -0.693 -0.314 c -0.204 -0.108 -0.377 -0.227 -0.521 -0.359 c -0.144 -0.138 -0.256 -0.295 -0.334 -0.469 c -0.072 -0.174 -0.107 -0.377 -0.107 -0.611 c 0 -0.534 0.177 -0.939 0.531 -1.215 c 0.354 -0.276 0.847 -0.414 1.477 -0.414 z m 2.381 1.719 l 0.621 0 c 0.066 0.318 0.146 0.663 0.242 1.035 c 0.102 0.366 0.21 0.732 0.324 1.098 c 0.114 0.36 0.228 0.701 0.342 1.025 c 0.12 0.324 0.232 0.6 0.334 0.828 c 0.114 -0.3 0.228 -0.621 0.342 -0.963 c 0.12 -0.342 0.23 -0.687 0.332 -1.035 c 0.102 -0.348 0.199 -0.689 0.289 -1.025 c 0.09 -0.342 0.168 -0.663 0.234 -0.963 l 0.504 0 c 0.054 0.3 0.123 0.621 0.207 0.963 c 0.09 0.336 0.185 0.681 0.287 1.035 c 0.108 0.348 0.22 0.693 0.334 1.035 c 0.12 0.342 0.239 0.663 0.359 0.963 c 0.102 -0.228 0.21 -0.504 0.324 -0.828 c 0.114 -0.33 0.228 -0.675 0.342 -1.035 c 0.114 -0.366 0.218 -0.732 0.314 -1.098 c 0.102 -0.372 0.186 -0.717 0.252 -1.035 l 0.576 0 c -0.216 0.912 -0.453 1.746 -0.711 2.502 c -0.252 0.756 -0.532 1.472 -0.838 2.15 l -0.549 0 c -0.09 -0.21 -0.185 -0.443 -0.287 -0.701 c -0.096 -0.264 -0.199 -0.544 -0.307 -0.838 c -0.102 -0.3 -0.203 -0.612 -0.305 -0.936 c -0.096 -0.33 -0.189 -0.666 -0.279 -1.01 c -0.09 0.342 -0.187 0.678 -0.289 1.01 c -0.096 0.324 -0.197 0.636 -0.305 0.936 c -0.102 0.294 -0.205 0.574 -0.307 0.838 c -0.096 0.258 -0.189 0.491 -0.279 0.701 l -0.559 0 c -0.306 -0.678 -0.588 -1.394 -0.846 -2.15 c -0.252 -0.756 -0.485 -1.59 -0.701 -2.502 z m 8.252 2.311 c 0.394 0 0.69 0.098 0.889 0.293 c 0.199 0.191 0.299 0.458 0.299 0.801 c 0 0.152 -0.027 0.297 -0.082 0.434 c -0.055 0.133 -0.129 0.262 -0.223 0.387 c -0.09 0.125 -0.194 0.244 -0.311 0.361 c -0.117 0.117 -0.237 0.235 -0.357 0.352 c -0.101 0.098 -0.199 0.197 -0.297 0.299 c -0.094 0.097 -0.18 0.197 -0.258 0.299 c -0.074 0.097 -0.135 0.194 -0.182 0.291 c -0.043 0.094 -0.064 0.188 -0.064 0.281 l 0 0.012 l 1.914 0 l 0 0.334 l -2.336 0 c 0 -0.008 -0.002 -0.022 -0.006 -0.041 l 0 -0.1 c 0 -0.183 0.033 -0.354 0.1 -0.51 c 0.066 -0.16 0.151 -0.309 0.252 -0.449 c 0.105 -0.14 0.221 -0.272 0.346 -0.393 c 0.129 -0.121 0.252 -0.238 0.369 -0.352 c 0.098 -0.094 0.188 -0.184 0.273 -0.27 c 0.09 -0.09 0.168 -0.18 0.234 -0.273 c 0.066 -0.094 0.119 -0.194 0.158 -0.299 c 0.039 -0.105 0.059 -0.221 0.059 -0.346 c 0 -0.273 -0.074 -0.467 -0.223 -0.584 c -0.144 -0.121 -0.327 -0.182 -0.549 -0.182 c -0.125 0 -0.236 0.016 -0.334 0.047 c -0.097 0.031 -0.184 0.068 -0.258 0.111 c -0.07 0.039 -0.131 0.08 -0.182 0.123 c -0.051 0.043 -0.088 0.076 -0.111 0.1 l -0.199 -0.264 c 0.023 -0.027 0.065 -0.066 0.123 -0.117 c 0.062 -0.055 0.139 -0.108 0.229 -0.158 c 0.094 -0.051 0.201 -0.094 0.322 -0.129 c 0.121 -0.039 0.256 -0.059 0.404 -0.059 z" style="fill:#ececec;fill-opacity:1"/>
</svg>
